Papirus/64x64/apps/systach.svg

<?xml version="1.0" encoding="UTF-8" standalone="no"?>
<svg
   id="_图层_1"
   version="1.1"
   viewBox="0 0 64 64" width="64" height="64"
   sodipodi:docname="systach.svg"
   xml:space="preserve"
   inkscape:version="1.4 (e7c3feb100, 2024-10-09)"
   xmlns:inkscape="http://www.inkscape.org/namespaces/inkscape"
   xmlns:sodipodi="http://sodipodi.sourceforge.net/DTD/sodipodi-0.dtd"
   xmlns="http://www.w3.org/2000/svg"
   xmlns:svg="http://www.w3.org/2000/svg"><sodipodi:namedview
     id="namedview26"
     pagecolor="#505050"
     bordercolor="#eeeeee"
     borderopacity="1"
     inkscape:showpageshadow="0"
     inkscape:pageopacity="0"
     inkscape:pagecheckerboard="0"
     inkscape:deskcolor="#505050"
     inkscape:zoom="10.6875"
     inkscape:cx="32"
     inkscape:cy="26.666667"
     inkscape:window-width="1920"
     inkscape:window-height="939"
     inkscape:window-x="0"
     inkscape:window-y="34"
     inkscape:window-maximized="1"
     inkscape:current-layer="_图层_1" /><!-- Generator: Adobe Illustrator 29.0.1, SVG Export Plug-In . SVG Version: 2.1.0 Build 192)  --><defs
     id="defs6"><style
       id="style1">
      .st0 {
        fill-opacity: .5;
      }

      .st0, .st1, .st2, .st3, .st4, .st5, .st6, .st7 {
        fill: #fff;
      }

      .st8 {
        fill: #133c9a;
      }

      .st2, .st9 {
        display: none;
      }

      .st3 {
        fill-opacity: .2;
      }

      .st4 {
        fill-opacity: .9;
      }

      .st10 {
        fill: #3370ff;
      }

      .st11 {
        fill: url(#_未命名的渐变_3);
      }

      .st12 {
        fill: url(#_未命名的渐变);
      }

      .st5 {
        fill-opacity: .3;
      }

      .st6 {
        fill-opacity: 0;
      }

      .st7 {
        fill-opacity: .7;
      }

      .st13 {
        fill: #00d6b9;
      }

      .st14 {
        fill: url(#_未命名的渐变_2);
      }
    </style><radialGradient
       id="_未命名的渐变"
       data-name="未命名的渐变"
       cx="123.9"
       cy="-40.2"
       fx="123.9"
       fy="-40.2"
       r="59.4"
       gradientTransform="translate(-26.8 25.5) scale(.6 -.7)"
       gradientUnits="userSpaceOnUse"><stop
         offset="0"
         stop-color="#db202e"
         id="stop1" /><stop
         offset="1"
         stop-color="#e01b24"
         id="stop2" /></radialGradient><radialGradient
       id="_未命名的渐变_2"
       data-name="未命名的渐变 2"
       cx="67.6"
       cy="26.8"
       fx="67.6"
       fy="26.8"
       r="105.2"
       gradientTransform="translate(-26.6 25.3) scale(.6 -.7)"
       gradientUnits="userSpaceOnUse"><stop
         offset="0"
         stop-color="#ffb648"
         id="stop3" /><stop
         offset="1"
         stop-color="#ff7800"
         stop-opacity="0"
         id="stop4" /></radialGradient><radialGradient
       id="_未命名的渐变_3"
       data-name="未命名的渐变 3"
       cx="61.7"
       cy="18.6"
       fx="61.7"
       fy="18.6"
       r="68"
       gradientTransform="translate(-26.8 25.8) scale(.6 -.7)"
       gradientUnits="userSpaceOnUse"><stop
         offset="0"
         stop-color="#c64600"
         id="stop5" /><stop
         offset="1"
         stop-color="#a51d2d"
         id="stop6" /></radialGradient></defs><path
     class="st1"
     d="M47.5,64.1H13.8c-7.6,0-13.8-6.3-13.8-13.8V13.7C0,6.2,6.2,0,13.7,0h36.6c7.5,0,13.7,6.2,13.7,13.7v36.6c0,7.5-6.2,13.7-13.7,13.7h-2.9.1Z"
     id="path6"
     style="fill:#4295ac;fill-opacity:1" /><g
     id="g42"
     transform="matrix(1.1064731,0,0,1.1030826,-3.4071385,-3.394043)"><path
       style="opacity:0.1"
       d="m 20.398438,18.5 7.14453,12.246094 A 5,5 0 0 0 27,33 a 5,5 0 0 0 5,5 5,5 0 0 0 5,-5 5,5 0 0 0 -5,-5 5,5 0 0 0 -0.941406,0.09374 z"
       id="path2" /><path
       style="fill:#3f3f3f"
       d="M 20.4,17.5 30.55,34.9 34.9,30.55 20.4,17.499652 Z"
       id="path3-0" /><circle
       style="fill:#3f3f3f"
       cx="32"
       cy="32"
       r="5"
       id="circle3" /><path
       style="opacity:0.2"
       d="m 32,8 a 3.0000014,3.0000014 0 0 0 -3,3 3.0000014,3.0000014 0 0 0 3,3 3.0000014,3.0000014 0 0 0 3,-3 3.0000014,3.0000014 0 0 0 -3,-3 z m -13,4 a 2.9999989,2.9999989 0 0 0 -3,3 2.9999989,2.9999989 0 0 0 3,3 2.9999989,2.9999989 0 0 0 3,-3 2.9999989,2.9999989 0 0 0 -3,-3 z m 26,0 a 2.9999989,2.9999989 0 0 0 -3,3 2.9999989,2.9999989 0 0 0 3,3 2.9999989,2.9999989 0 0 0 3,-3 2.9999989,2.9999989 0 0 0 -3,-3 z m -34,9 a 2.9999989,2.9999989 0 0 0 -3,3 2.9999989,2.9999989 0 0 0 3,3 2.9999989,2.9999989 0 0 0 3,-3 2.9999989,2.9999989 0 0 0 -3,-3 z m 42,0 a 2.9999989,2.9999989 0 0 0 -3,3 2.9999989,2.9999989 0 0 0 3,3 2.9999989,2.9999989 0 0 0 3,-3 2.9999989,2.9999989 0 0 0 -3,-3 z M 10,33 a 2.9999989,2.9999989 0 0 0 -3,3 2.9999989,2.9999989 0 0 0 3,3 2.9999989,2.9999989 0 0 0 3,-3 2.9999989,2.9999989 0 0 0 -3,-3 z m 44,0 a 2.9999989,2.9999989 0 0 0 -3,3 2.9999989,2.9999989 0 0 0 3,3 2.9999989,2.9999989 0 0 0 3,-3 2.9999989,2.9999989 0 0 0 -3,-3 z M 15,44 a 2.9999989,2.9999989 0 0 0 -3,3 2.9999989,2.9999989 0 0 0 3,3 2.9999989,2.9999989 0 0 0 3,-3 2.9999989,2.9999989 0 0 0 -3,-3 z m 34,0 a 2.9999989,2.9999989 0 0 0 -3,3 2.9999989,2.9999989 0 0 0 3,3 2.9999989,2.9999989 0 0 0 3,-3 2.9999989,2.9999989 0 0 0 -3,-3 z"
       id="path4-3" /><path
       style="fill:#ffffff"
       d="m 32,7 a 3.0000014,3.0000014 0 0 0 -3,3 3.0000014,3.0000014 0 0 0 3,3 3.0000014,3.0000014 0 0 0 3,-3 3.0000014,3.0000014 0 0 0 -3,-3 z m -13,4 a 2.9999989,2.9999989 0 0 0 -3,3 2.9999989,2.9999989 0 0 0 3,3 2.9999989,2.9999989 0 0 0 3,-3 2.9999989,2.9999989 0 0 0 -3,-3 z m 26,0 a 2.9999989,2.9999989 0 0 0 -3,3 2.9999989,2.9999989 0 0 0 3,3 2.9999989,2.9999989 0 0 0 3,-3 2.9999989,2.9999989 0 0 0 -3,-3 z m -34,9 a 2.9999989,2.9999989 0 0 0 -3,3 2.9999989,2.9999989 0 0 0 3,3 2.9999989,2.9999989 0 0 0 3,-3 2.9999989,2.9999989 0 0 0 -3,-3 z m 42,0 a 2.9999989,2.9999989 0 0 0 -3,3 2.9999989,2.9999989 0 0 0 3,3 2.9999989,2.9999989 0 0 0 3,-3 2.9999989,2.9999989 0 0 0 -3,-3 z M 10,32 a 2.9999989,2.9999989 0 0 0 -3,3 2.9999989,2.9999989 0 0 0 3,3 2.9999989,2.9999989 0 0 0 3,-3 2.9999989,2.9999989 0 0 0 -3,-3 z m 44,0 a 2.9999989,2.9999989 0 0 0 -3,3 2.9999989,2.9999989 0 0 0 3,3 2.9999989,2.9999989 0 0 0 3,-3 2.9999989,2.9999989 0 0 0 -3,-3 z M 15,43 a 2.9999989,2.9999989 0 0 0 -3,3 2.9999989,2.9999989 0 0 0 3,3 2.9999989,2.9999989 0 0 0 3,-3 2.9999989,2.9999989 0 0 0 -3,-3 z m 34,0 a 2.9999989,2.9999989 0 0 0 -3,3 2.9999989,2.9999989 0 0 0 3,3 2.9999989,2.9999989 0 0 0 3,-3 2.9999989,2.9999989 0 0 0 -3,-3 z"
       id="path5" /></g></svg>

<svg xmlns="http://www.w3.org/2000/svg" width="64" height="64" version="1">
 <rect style="opacity:0.2" width="58" height="58" x="-62" y="-61" rx="29" ry="29" transform="matrix(0,-1,-1,0,0,0)"/>
 <rect style="fill:#4295ac" width="58" height="58" x="-61" y="-61" rx="29" ry="29" transform="matrix(0,-1,-1,0,0,0)"/>
 <path style="opacity:0.1" d="m 20.398438,18.5 7.14453,12.246094 A 5,5 0 0 0 27,33 a 5,5 0 0 0 5,5 5,5 0 0 0 5,-5 5,5 0 0 0 -5,-5 5,5 0 0 0 -0.941406,0.09374 z"/>
 <path style="fill:#3f3f3f" d="M 20.4,17.5 30.55,34.9 34.9,30.55 20.4,17.499652 Z"/>
 <circle style="fill:#3f3f3f" cx="32" cy="32" r="5"/>
 <path style="opacity:0.2" d="m 32,8 a 3.0000014,3.0000014 0 0 0 -3,3 3.0000014,3.0000014 0 0 0 3,3 3.0000014,3.0000014 0 0 0 3,-3 3.0000014,3.0000014 0 0 0 -3,-3 z m -13,4 a 2.9999989,2.9999989 0 0 0 -3,3 2.9999989,2.9999989 0 0 0 3,3 2.9999989,2.9999989 0 0 0 3,-3 2.9999989,2.9999989 0 0 0 -3,-3 z m 26,0 a 2.9999989,2.9999989 0 0 0 -3,3 2.9999989,2.9999989 0 0 0 3,3 2.9999989,2.9999989 0 0 0 3,-3 2.9999989,2.9999989 0 0 0 -3,-3 z m -34,9 a 2.9999989,2.9999989 0 0 0 -3,3 2.9999989,2.9999989 0 0 0 3,3 2.9999989,2.9999989 0 0 0 3,-3 2.9999989,2.9999989 0 0 0 -3,-3 z m 42,0 a 2.9999989,2.9999989 0 0 0 -3,3 2.9999989,2.9999989 0 0 0 3,3 2.9999989,2.9999989 0 0 0 3,-3 2.9999989,2.9999989 0 0 0 -3,-3 z M 10,33 a 2.9999989,2.9999989 0 0 0 -3,3 2.9999989,2.9999989 0 0 0 3,3 2.9999989,2.9999989 0 0 0 3,-3 2.9999989,2.9999989 0 0 0 -3,-3 z m 44,0 a 2.9999989,2.9999989 0 0 0 -3,3 2.9999989,2.9999989 0 0 0 3,3 2.9999989,2.9999989 0 0 0 3,-3 2.9999989,2.9999989 0 0 0 -3,-3 z M 15,44 a 2.9999989,2.9999989 0 0 0 -3,3 2.9999989,2.9999989 0 0 0 3,3 2.9999989,2.9999989 0 0 0 3,-3 2.9999989,2.9999989 0 0 0 -3,-3 z m 34,0 a 2.9999989,2.9999989 0 0 0 -3,3 2.9999989,2.9999989 0 0 0 3,3 2.9999989,2.9999989 0 0 0 3,-3 2.9999989,2.9999989 0 0 0 -3,-3 z"/>
 <path style="fill:#ffffff" d="M 32 7 A 3.0000014 3.0000014 0 0 0 29 10 A 3.0000014 3.0000014 0 0 0 32 13 A 3.0000014 3.0000014 0 0 0 35 10 A 3.0000014 3.0000014 0 0 0 32 7 z M 19 11 A 2.9999989 2.9999989 0 0 0 16 14 A 2.9999989 2.9999989 0 0 0 19 17 A 2.9999989 2.9999989 0 0 0 22 14 A 2.9999989 2.9999989 0 0 0 19 11 z M 45 11 A 2.9999989 2.9999989 0 0 0 42 14 A 2.9999989 2.9999989 0 0 0 45 17 A 2.9999989 2.9999989 0 0 0 48 14 A 2.9999989 2.9999989 0 0 0 45 11 z M 11 20 A 2.9999989 2.9999989 0 0 0 8 23 A 2.9999989 2.9999989 0 0 0 11 26 A 2.9999989 2.9999989 0 0 0 14 23 A 2.9999989 2.9999989 0 0 0 11 20 z M 53 20 A 2.9999989 2.9999989 0 0 0 50 23 A 2.9999989 2.9999989 0 0 0 53 26 A 2.9999989 2.9999989 0 0 0 56 23 A 2.9999989 2.9999989 0 0 0 53 20 z M 10 32 A 2.9999989 2.9999989 0 0 0 7 35 A 2.9999989 2.9999989 0 0 0 10 38 A 2.9999989 2.9999989 0 0 0 13 35 A 2.9999989 2.9999989 0 0 0 10 32 z M 54 32 A 2.9999989 2.9999989 0 0 0 51 35 A 2.9999989 2.9999989 0 0 0 54 38 A 2.9999989 2.9999989 0 0 0 57 35 A 2.9999989 2.9999989 0 0 0 54 32 z M 15 43 A 2.9999989 2.9999989 0 0 0 12 46 A 2.9999989 2.9999989 0 0 0 15 49 A 2.9999989 2.9999989 0 0 0 18 46 A 2.9999989 2.9999989 0 0 0 15 43 z M 49 43 A 2.9999989 2.9999989 0 0 0 46 46 A 2.9999989 2.9999989 0 0 0 49 49 A 2.9999989 2.9999989 0 0 0 52 46 A 2.9999989 2.9999989 0 0 0 49 43 z"/>
 <path style="opacity:0.2;fill:#ffffff" d="M 32 3 C 15.934 3 3 15.934 3 32 C 3 32.110857 3.0114705 32.218895 3.0175781 32.328125 C 3.3736217 16.576183 16.159477 4 32 4 C 47.840523 4 60.626378 16.576183 60.982422 32.328125 C 60.98853 32.218895 61 32.110857 61 32 C 61 15.934 48.066 3 32 3 z"/>
</svg>
